client/img/icon/solid/more-detail.svg

<?xml version="1.0" encoding="UTF-8"?>
<svg width="32px" height="32px" viewBox="0 0 32 32" version="1.1" xmlns="http://www.w3.org/2000/svg" xmlns:xlink="http://www.w3.org/1999/xlink">
    <!-- Generator: sketchtool 47 (45396) - http://www.bohemiancoding.com/sketch -->
    <title>icon/solid/more-detail</title>
    <desc>Created with sketchtool.</desc>
    <defs>
        <path d="M16,11 C14.8954305,11 14,10.1045695 14,9 C14,7.8954305 14.8954305,7 16,7 C17.1045695,7 18,7.8954305 18,9 C18,10.1045695 17.1045695,11 16,11 Z M16,18 C14.8954305,18 14,17.1045695 14,16 C14,14.8954305 14.8954305,14 16,14 C17.1045695,14 18,14.8954305 18,16 C18,17.1045695 17.1045695,18 16,18 Z M16,25 C14.8954305,25 14,24.1045695 14,23 C14,21.8954305 14.8954305,21 16,21 C17.1045695,21 18,21.8954305 18,23 C18,24.1045695 17.1045695,25 16,25 Z" id="path-1"></path>
    </defs>
    <g id="Symbols" stroke="none" stroke-width="1" fill="none" fill-rule="evenodd">
        <g id="icon/solid/more-detail">
            <mask id="mask-2" fill="white">
                <use xlink:href="#path-1"></use>
            </mask>
            <use id="expand" fill="#000000" xlink:href="#path-1"></use>
            <g id="color/solid/primary" mask="url(#mask-2)" fill="#4A90E2">
                <g transform="translate(-22.000000, -25.000000)" id="color">
                    <rect x="0" y="0" width="80" height="80"></rect>
                </g>
            </g>
        </g>
    </g>
</svg>

<?xml version="1.0" encoding="utf-8"?>
<!-- Generator: Adobe Illustrator 23.0.0, SVG Export Plug-In . SVG Version: 6.00 Build 0)  -->
<svg version="1.1" id="Layer_1" xmlns="http://www.w3.org/2000/svg" xmlns:xlink="http://www.w3.org/1999/xlink" x="0px" y="0px"
	 viewBox="0 0 32 32" style="enable-background:new 0 0 32 32;" xml:space="preserve">
<style type="text/css">
	.st0{fill-rule:evenodd;clip-rule:evenodd;}
</style>
<g>
	<path class="st0" d="M16,11c-1.1,0-2-0.9-2-2s0.9-2,2-2s2,0.9,2,2S17.1,11,16,11z M16,18c-1.1,0-2-0.9-2-2s0.9-2,2-2s2,0.9,2,2
		S17.1,18,16,18z M16,25c-1.1,0-2-0.9-2-2s0.9-2,2-2s2,0.9,2,2S17.1,25,16,25z"/>
</g>
</svg>
